water-well-outline.svg

<svg fill="currentColor" viewBox="0 0 24 24"><path d="M3.62 8H5v7h2V8h4v2h2V8h4v7h2V8h1.61c.55 0 1-.44 1-1a.9.9 0 0 0-.05-.32L19 2H5L2.72 6.55A.998.998 0 0 0 3.62 8m2.62-4h11.52l1 2H5.24zM2 16v2h2v4h16v-4h2v-2zm16 4H6v-2h12zm-4.07-9c.28 0 .5.22.5.5v.06l-.38 3c-.05.25-.24.44-.49.44h-3.12c-.25 0-.44-.19-.49-.44l-.38-3A.51.51 0 0 1 10 11h3.93"/></svg>

<svg  viewBox="0 0 24 24" fill="currentColor"><path  d="M3.62 8H5V15H7V8H11V10H13V8H17V15H19V8H20.61C21.16 8 21.61 7.56 21.61 7C21.61 6.89 21.6 6.78 21.56 6.68L19 2H5L2.72 6.55C2.47 7.04 2.67 7.64 3.16 7.89C3.31 7.96 3.46 8 3.62 8M6.24 4H17.76L18.76 6H5.24L6.24 4M2 16V18H4V22H20V18H22V16H2M18 20H6V18H18V20M13.93 11C14.21 11 14.43 11.22 14.43 11.5C14.43 11.5 14.43 11.54 14.43 11.56L14.05 14.56C14 14.81 13.81 15 13.56 15H10.44C10.19 15 10 14.81 9.95 14.56L9.57 11.56C9.54 11.29 9.73 11.04 10 11C10.03 11 10.05 11 10.07 11H13.93Z"/></svg>
